icons/svg/open-pages_14.svg

<?xml version="1.0" encoding="UTF-8"?>
<svg width="14px" height="14px" viewBox="0 0 14 14" version="1.1" xmlns="http://www.w3.org/2000/svg" xmlns:xlink="http://www.w3.org/1999/xlink">
    <!-- Generator: Sketch 59.1 (86144) - https://sketch.com -->
    <title>open-pages_14</title>
    <desc>Created with Sketch.</desc>
    <g id="Icons-Webex" stroke="none" stroke-width="1" fill="none" fill-rule="evenodd">
        <g id="content/open-pages_14" fill="#171B1F">
            <path d="M12.004,10.997 C12.004,11.268 11.788,11.489 11.522,11.489 L10.52,11.489 L10.52,5.547 C10.52,5.327 10.435,5.119 10.28,4.961 L7.339,1.98 C7.183,1.821 6.975,1.734 6.753,1.734 L4.5,1.734 L4.5,1.492 C4.5,1.221 4.716,1 4.982,1 L9.161,1 L12.004,3.875 L12.004,10.997 Z M6.969,3.052 L8.876,4.985 L7.356,4.985 C7.143,4.985 6.969,4.812 6.969,4.599 L6.969,3.052 Z M9.016,13 L2.479,13 C2.214,13 1.998,12.779 1.998,12.506 L1.998,3.228 C1.998,2.955 2.214,2.734 2.479,2.734 L5.972,2.734 L5.972,4.599 C5.972,5.363 6.593,5.985 7.356,5.985 L9.497,5.985 L9.497,12.506 C9.497,12.779 9.281,13 9.016,13 L9.016,13 Z M9.80988561,0.245 C9.6565918,0.09 9.44218085,0 9.22376221,0 L4.96459881,0 C4.14803373,0 3.48275862,0.669 3.48275862,1.492 L3.48275862,1.734 L2.48184019,1.734 C1.66527511,1.734 1,2.404 1,3.228 L1,12.506 C1,13.33 1.66527511,14 2.48184019,14 L9.0313935,14 C9.84896051,14 10.5132337,13.33 10.5132337,12.506 L10.5132337,12.489 L11.5171579,12.489 C12.333723,12.489 13,11.82 13,10.997 L13,3.807 C13,3.585 12.9138349,3.377 12.7585372,3.221 L9.80988561,0.245 Z" id="fill"></path>
        </g>
    </g>
</svg>

<svg width="14" height="14" xmlns="http://www.w3.org/2000/svg"><path d="M12.004 10.997a.488.488 0 01-.482.492H10.52V5.547a.832.832 0 00-.24-.586L7.339 1.98a.814.814 0 00-.586-.246H4.5v-.242c0-.271.216-.492.482-.492h4.179l2.843 2.875v7.122zM6.969 3.052l1.907 1.933h-1.52a.387.387 0 01-.387-.386V3.052zM9.016 13H2.479a.488.488 0 01-.481-.494V3.228c0-.273.216-.494.481-.494h3.493v1.865c0 .764.621 1.386 1.384 1.386h2.141v6.521a.488.488 0 01-.481.494zM9.81.245A.832.832 0 009.224 0h-4.26c-.816 0-1.481.669-1.481 1.492v.242H2.482A1.49 1.49 0 001 3.228v9.278A1.49 1.49 0 002.482 14h6.55a1.49 1.49 0 001.481-1.494v-.017h1.004A1.49 1.49 0 0013 10.997v-7.19a.825.825 0 00-.241-.586L9.809.245z" fill="#171B1F" fill-rule="evenodd"/></svg>
